packages/icons/svg/Product_Basket_Handbag_32px.svg

<svg xmlns="http://www.w3.org/2000/svg" viewBox="0 0 32 32"><path d="M7.11 29h17.78a2 2 0 001.48-.66 2 2 0 00.51-1.55l-1.73-16a2 2 0 00-2-1.79H21V8a5 5 0 00-10 0v1H8.83a2 2 0 00-2 1.79l-1.73 16a2 2 0 00.51 1.55 2 2 0 001.5.66zM13 8a3 3 0 016 0v1h-6zm-4.17 3H11v1a1 1 0 002 0v-1h6v1a1 1 0 002 0v-1h2.17l1.72 16H7.11z"/></svg>

<svg xmlns="http://www.w3.org/2000/svg" viewBox="0 0 32 32"><defs></defs><g id="Icon"><path  d="M7.11,29H24.89a2,2,0,0,0,1.48-.66,2,2,0,0,0,.51-1.55l-1.73-16a2,2,0,0,0-2-1.79H21V8A5,5,0,0,0,11,8V9H8.83a2,2,0,0,0-2,1.79l-1.73,16a2,2,0,0,0,.51,1.55A2,2,0,0,0,7.11,29ZM13,8a3,3,0,0,1,6,0V9H13ZM8.83,11H11v1a1,1,0,0,0,2,0V11h6v1a1,1,0,0,0,2,0V11h2.17l1.72,16H7.11Z"/></g></svg>
